src/assets/icon_refresh.svg

<svg xmlns="http://www.w3.org/2000/svg" xmlns:xlink="http://www.w3.org/1999/xlink" xml:space="preserve" version="1.1" style="shape-rendering:geometricPrecision;text-rendering:geometricPrecision;image-rendering:optimizeQuality;" viewBox="0 0 3.452 5.23875" x="0px" y="0px" fill-rule="evenodd" clip-rule="evenodd"><defs><style type="text/css">

    .fil0 {fill:#F5F2ED;fill-rule:nonzero}

  </style></defs><g><path class="fil0" d="M2.954 0.869c-0.061,-0.061 -0.061,-0.16 0.001,-0.221 0.061,-0.061 0.16,-0.061 0.221,0 0.087,0.087 0.157,0.191 0.204,0.306 0.047,0.111 0.072,0.232 0.072,0.359l0 1.569c0,0.259 -0.106,0.494 -0.276,0.665 -0.171,0.17 -0.406,0.276 -0.665,0.276l-1.191 0 0.1 0.101c0.062,0.061 0.062,0.16 0,0.221 -0.061,0.062 -0.16,0.062 -0.221,0l-0.368 -0.368 -0.003 -0.002 0 -0.001 -0.003 -0.002 0 0 -0.002 -0.003 -0.001 0 -0.002 -0.003 -0.002 -0.002 0 -0.001 -0.001 -0.001 -0.001 -0.002 -0.001 -0.001 -0.001 -0.002 -0.001 0c-0.002,-0.004 -0.005,-0.008 -0.008,-0.012l-0.001 -0.002 0 -0.002 -0.001 -0.002 -0.001 -0.001 -0.001 -0.002 -0.001 -0.002 -0.001 -0.001 -0.001 -0.002 0 -0.002 -0.001 -0.001 -0.001 -0.002 -0.001 -0.002 0 -0.002 -0.001 -0.002 -0.001 -0.002c-0.005,-0.014 -0.007,-0.029 -0.008,-0.044l0 -0.003 0 -0.001 0 -0.004 0 -0.003 0 -0.001 0 -0.003c0.001,-0.016 0.003,-0.03 0.008,-0.044l0.001 -0.002 0.001 -0.002 0 -0.002 0.001 -0.002 0.001 -0.002 0.001 -0.001 0 -0.002 0.001 -0.002 0.001 -0.002 0.001 -0.001 0.001 -0.002 0.001 -0.002 0.001 -0.001 0 -0.002 0.001 -0.002c0.003,-0.004 0.006,-0.008 0.008,-0.012l0.001 0 0.001 -0.002 0.001 -0.001 0.001 -0.002 0.001 -0.001 0 -0.001 0.002 -0.002 0.002 -0.003 0.001 0 0.002 -0.003 0 0 0.003 -0.003 0 0 0.003 -0.002 0.002 -0.003 0 0 0.003 -0.003 0 0 0.002 -0.002 0.356 -0.363c0.061,-0.062 0.16,-0.062 0.222,-0.002 0.061,0.061 0.062,0.16 0.001,0.222l-0.103 0.105 1.197 0c0.172,0 0.329,-0.071 0.443,-0.185 0.114,-0.114 0.184,-0.271 0.184,-0.443l0 -1.569c0,-0.085 -0.017,-0.166 -0.047,-0.239 -0.032,-0.077 -0.079,-0.147 -0.137,-0.205zm-2.169 2.797l0 0 0 0zm1.25 -3.4c-0.061,-0.061 -0.06,-0.16 0.002,-0.221 0.061,-0.061 0.16,-0.06 0.221,0.002l0.356 0.363 0.002 0.002 0 0 0.003 0.002 0 0.001 0.003 0.002 0.002 0.003 0 0 0.003 0.003 0 0 0.002 0.002 0.001 0.001 0.002 0.002 0.002 0.003 0 0 0.001 0.001 0.001 0.002 0.001 0.001 0.002 0.002 0 0c0.003,0.004 0.005,0.009 0.008,0.013l0.001 0.002 0.001 0.001 0.001 0.002 0 0.002 0.001 0.002 0.001 0.001 0.001 0.002 0.001 0.002 0.001 0.002 0 0.001 0.001 0.002 0.001 0.002 0 0.002 0.001 0.001 0.001 0.002c0.005,0.014 0.008,0.029 0.008,0.045l0.001 0.003 0 0 0 0.004 0 0.004 0 0 -0.001 0.004c0,0.015 -0.003,0.03 -0.008,0.044l-0.001 0.002 -0.001 0.002 0 0.002 -0.001 0.001 -0.001 0.002 0 0.002 -0.001 0.002 -0.001 0.001 -0.001 0.002 -0.001 0.002 -0.001 0.002 0 0.001 -0.001 0.002 -0.001 0.001 -0.001 0.002c-0.003,0.005 -0.005,0.009 -0.008,0.013l0 0 -0.002 0.002 -0.001 0.001 -0.001 0.002 -0.001 0.001 0 0 -0.002 0.003 -0.002 0.002 -0.001 0.001 -0.002 0.002 0 0.001 -0.003 0.002 0 0 -0.002 0.003 -0.368 0.368c-0.062,0.061 -0.161,0.061 -0.222,0 -0.062,-0.061 -0.062,-0.161 0,-0.222l0.1 -0.1 -1.191 0c-0.172,0 -0.329,0.071 -0.443,0.185 -0.114,0.113 -0.184,0.27 -0.184,0.443l0 1.569c0,0.085 0.017,0.166 0.047,0.239 0.032,0.077 0.079,0.147 0.137,0.204 0.061,0.061 0.062,0.16 0.001,0.222 -0.061,0.061 -0.16,0.061 -0.222,0 -0.087,-0.087 -0.157,-0.191 -0.205,-0.306 -0.046,-0.111 -0.072,-0.233 -0.072,-0.359l0 -1.569c0,-0.259 0.106,-0.495 0.276,-0.665 0.171,-0.171 0.406,-0.277 0.665,-0.277l1.197 0 -0.103 -0.105zm0.633 0.262l0 0 0 0z"/></g><text x="0" y="19.191" fill="#F5F2ED" font-size="5px" font-weight="bold" font-family="'Helvetica Neue', Helvetica, Arial-Unicode, Arial, Sans-serif">Created by Deemak Daksina</text><text x="0" y="24.191" fill="#F5F2ED" font-size="5px" font-weight="bold" font-family="'Helvetica Neue', Helvetica, Arial-Unicode, Arial, Sans-serif">from the Noun Project</text></svg>

<svg xmlns="http://www.w3.org/2000/svg" viewBox="0 0 3.452 5.239" fill-rule="evenodd" clip-rule="evenodd" shape-rendering="geometricPrecision" text-rendering="geometricPrecision" image-rendering="optimizeQuality"><defs><style>.fil0{fill:#f5f2ed;fill-rule:nonzero}</style></defs><path class="fil0" d="M2.954.869a.155.155 0 0 1 .001-.221.156.156 0 0 1 .221 0 .933.933 0 0 1 .276.665v1.569a.941.941 0 0 1-.941.941H1.32l.1.101a.155.155 0 0 1 0 .221.155.155 0 0 1-.221 0l-.368-.368-.003-.002v-.001l-.003-.002-.002-.003H.822L.82 3.766l-.002-.002v-.001l-.001-.001-.001-.002-.001-.001-.001-.002H.813l-.008-.012-.001-.002v-.002l-.001-.002-.001-.001-.001-.002L.8 3.734l-.001-.001-.001-.002v-.002l-.001-.001-.001-.002-.001-.002v-.002L.794 3.72l-.001-.002a.163.163 0 0 1-.008-.044v-.015a.156.156 0 0 1 .008-.044l.001-.002.001-.002v-.002l.001-.002.001-.002.001-.001v-.002L.799 3.6.8 3.598l.001-.001.001-.002.001-.002.001-.001V3.59l.001-.002a.083.083 0 0 0 .008-.012h.001l.001-.002.001-.001.001-.002.001-.001v-.001l.002-.002.002-.003h.001l.002-.003.003-.003.003-.002.002-.003.003-.003.002-.002.356-.363a.158.158 0 0 1 .222-.002c.061.061.062.16.001.222l-.103.105h1.197a.626.626 0 0 0 .627-.628V1.313a.629.629 0 0 0-.184-.444zM.785 3.666zm1.25-3.4a.155.155 0 0 1 .002-.221.155.155 0 0 1 .221.002l.356.363.002.002.003.002v.001l.003.002.002.003.003.003.002.002.001.001.002.002.002.003.001.001.001.002.001.001.002.002.008.013.001.002.001.001.001.002v.002l.001.002.001.001.001.002.001.002.001.002v.001l.001.002.001.002v.002l.001.001.001.002a.133.133 0 0 1 .008.045l.001.003v.008l-.001.004c0 .015-.003.03-.008.044l-.001.002-.001.002v.002l-.001.001-.001.002v.002l-.001.002-.001.001-.001.002-.001.002L2.65.6v.001l-.001.002-.001.001-.001.002-.008.013-.002.002-.001.001-.001.002-.001.001-.002.003L2.63.63l-.001.001-.002.002v.001l-.003.002-.002.003-.368.368a.158.158 0 0 1-.222 0 .156.156 0 0 1 0-.222l.1-.1H.941a.626.626 0 0 0-.627.628v1.569a.629.629 0 0 0 .184.443c.061.061.062.16.001.222a.158.158 0 0 1-.222 0A.951.951 0 0 1 0 2.882V1.313A.94.94 0 0 1 .276.648.938.938 0 0 1 .941.371h1.197L2.035.266zm.633.262z"/><text y="19.191" fill="#F5F2ED" font-size="5" font-weight="bold" font-family="'Helvetica Neue', Helvetica, Arial-Unicode, Arial, Sans-serif">Created by Deemak Daksina</text><text y="24.191" fill="#F5F2ED" font-size="5" font-weight="bold" font-family="'Helvetica Neue', Helvetica, Arial-Unicode, Arial, Sans-serif">from the Noun Project</text></svg>
